server/website/public/icons/base/diagram.svg

<svg width="48" height="48" viewBox="0 0 48 48" fill="none" xmlns="http://www.w3.org/2000/svg">
<path d="M0 9.5625C0 7.38867 1.79167 5.625 4 5.625H12C14.2083 5.625 16 7.38867 16 9.5625V10.875H32V9.5625C32 7.38867 33.7917 5.625 36 5.625H44C46.2083 5.625 48 7.38867 48 9.5625V17.4375C48 19.6113 46.2083 21.375 44 21.375H36C33.7917 21.375 32 19.6113 32 17.4375V16.125H16V17.4375C16 17.577 15.9917 17.7164 15.975 17.8477L22.6667 26.625H30.6667C32.875 26.625 34.6667 28.3887 34.6667 30.5625V38.4375C34.6667 40.6113 32.875 42.375 30.6667 42.375H22.6667C20.4583 42.375 18.6667 40.6113 18.6667 38.4375V30.5625C18.6667 30.423 18.675 30.2836 18.6917 30.1523L12 21.375H4C1.79167 21.375 0 19.6113 0 17.4375V9.5625Z" fill="black"/>
</svg>

<svg width="48" height="48" fill="none" xmlns="http://www.w3.org/2000/svg"><path d="M0 9.563c0-2.174 1.792-3.938 4-3.938h8c2.208 0 4 1.764 4 3.938v1.312h16V9.562c0-2.173 1.792-3.937 4-3.937h8c2.208 0 4 1.764 4 3.938v7.874c0 2.174-1.792 3.938-4 3.938h-8c-2.208 0-4-1.764-4-3.938v-1.312H16v1.313c0 .139-.008.278-.025.41l6.692 8.777h8c2.208 0 4 1.764 4 3.938v7.875c0 2.173-1.792 3.937-4 3.937h-8c-2.209 0-4-1.764-4-3.938v-7.874c0-.14.008-.28.025-.41L12 21.374H4c-2.208 0-4-1.764-4-3.938V9.563z" fill="#000"/></svg>
